static/img/kroki/a0a30f2e6e8f7e56d8822384adaf5589.svg

<?xml version="1.0" encoding="us-ascii" standalone="no"?><svg xmlns="http://www.w3.org/2000/svg" xmlns:xlink="http://www.w3.org/1999/xlink" contentStyleType="text/css" height="152px" preserveAspectRatio="none" style="width:279px;height:152px;" version="1.1" viewBox="0 0 279 152" width="279px" zoomAndPan="magnify"><defs/><g><!--class gcp_sql_database--><g id="elem_gcp_sql_database"><rect codeLine="23" fill="#3D176E" height="39.7891" id="gcp_sql_database" rx="2.5" ry="2.5" style="stroke:#000D19;stroke-width:0.5;" width="186" x="46.5" y="106.79"/><ellipse cx="61.5" cy="126.6845" fill="#ADD1B2" rx="11" ry="11" style="stroke:#181818;stroke-width:1.0;"/><path d="M64.4688,132.3252 Q63.8906,132.622 63.25,132.7627 Q62.6094,132.9189 61.9063,132.9189 Q59.4063,132.9189 58.0781,131.2783 Q56.7656,129.622 56.7656,126.497 Q56.7656,123.372 58.0781,121.7158 Q59.4063,120.0595 61.9063,120.0595 Q62.6094,120.0595 63.25,120.2158 Q63.9063,120.372 64.4688,120.6689 L64.4688,123.3877 Q63.8438,122.8095 63.25,122.5439 Q62.6563,122.2627 62.0313,122.2627 Q60.6875,122.2627 60,123.3408 Q59.3125,124.4033 59.3125,126.497 Q59.3125,128.5908 60,129.6689 Q60.6875,130.7314 62.0313,130.7314 Q62.6563,130.7314 63.25,130.4658 Q63.8438,130.1845 64.4688,129.6064 L64.4688,132.3252 Z " fill="#000000"/><text fill="#D9B8FF" font-family="Helvetica" font-size="17" lengthAdjust="spacing" textLength="144" x="80.5" y="132.5698">gcp_sql_database</text></g><!--class gcp_sql_database_instance--><g id="elem_gcp_sql_database_instance"><rect codeLine="26" fill="#3D176E" height="39.7891" id="gcp_sql_database_instance" rx="2.5" ry="2.5" style="stroke:#000D19;stroke-width:0.5;" width="265" x="7" y="7"/><ellipse cx="22" cy="26.8945" fill="#ADD1B2" rx="11" ry="11" style="stroke:#181818;stroke-width:1.0;"/><path d="M24.9688,32.5352 Q24.3906,32.832 23.75,32.9727 Q23.1094,33.1289 22.4063,33.1289 Q19.9063,33.1289 18.5781,31.4883 Q17.2656,29.832 17.2656,26.707 Q17.2656,23.582 18.5781,21.9258 Q19.9063,20.2695 22.4063,20.2695 Q23.1094,20.2695 23.75,20.4258 Q24.4063,20.582 24.9688,20.8789 L24.9688,23.5977 Q24.3438,23.0195 23.75,22.7539 Q23.1563,22.4727 22.5313,22.4727 Q21.1875,22.4727 20.5,23.5508 Q19.8125,24.6133 19.8125,26.707 Q19.8125,28.8008 20.5,29.8789 Q21.1875,30.9414 22.5313,30.9414 Q23.1563,30.9414 23.75,30.6758 Q24.3438,30.3945 24.9688,29.8164 L24.9688,32.5352 Z " fill="#000000"/><text fill="#D9B8FF" font-family="Helvetica" font-size="17" lengthAdjust="spacing" textLength="223" x="41" y="32.7798">gcp_sql_database_instance</text></g><!--link gcp_sql_database_instance to gcp_sql_database--><g id="link_gcp_sql_database_instance_gcp_sql_database"><path codeLine="29" d="M139.5,47.22 C139.5,64.36 139.5,83.27 139.5,100.41 " fill="none" id="gcp_sql_database_instance-to-gcp_sql_database" style="stroke:#1A83AF;stroke-width:2.0;"/><polygon fill="#1A83AF" points="139.5,106.41,143.5,97.41,139.5,101.41,135.5,97.41,139.5,106.41" style="stroke:#1A83AF;stroke-width:2.0;"/></g><!--SRC=[XT31IiD040RWUvvY8UT2Oz0a5o4MYbwAM6yYPPATJPSckt5sQgdYksjibJKnxNN_Zvb_Tgqb2cnQtei6cmB91MwZJGi4ZSY9x6vcQqiYL0fKdFJ3kJLy5YoWGN6BzIkoBg4l7jUwt1XqJbnuqGsKcuhiriZ3U2OmxYj2mvwQrU1Spaows39wPMHMf4hrPNze6CiekS81ioIHZcGwdSeewvEpgqxU_IkM-Wr5v7_QmZ8EQWvMVAkJBJlXbHmS-fEFThm7ARMfnANtzd3eH0Rfp_jo3TBkEgsWTluQnqXeUT_YR70LPgbKoR_uRWm7PVTreYhRbNkfLn8O2d0eteFWOoHRQUCOJ7b4u_7aAOpoDCxdpvFhmPJW4m00]--></g></svg>

<svg xmlns="http://www.w3.org/2000/svg" width="279" height="152" viewBox="0 0 279 152"><rect width="186" height="39.789" x="46.5" y="106.79" fill="#3D176E" rx="2.5" ry="2.5" style="stroke:#000d19;stroke-width:.5"/><circle cx="61.5" cy="126.684" r="11" fill="#ADD1B2" style="stroke:#181818;stroke-width:1"/><path d="M64.469 132.325q-.578.297-1.219.438-.64.156-1.344.156-2.5 0-3.828-1.64-1.312-1.657-1.312-4.782t1.312-4.781q1.328-1.656 3.828-1.656.703 0 1.344.156.656.156 1.219.453v2.719q-.625-.579-1.219-.844-.594-.281-1.219-.281-1.343 0-2.031 1.078-.687 1.062-.687 3.156t.687 3.172q.688 1.062 2.031 1.062.625 0 1.219-.265.594-.281 1.219-.86z"/><text x="80.5" y="132.57" fill="#D9B8FF" font-family="Helvetica" font-size="17" textLength="144">gcp_sql_database</text><rect width="265" height="39.789" x="7" y="7" fill="#3D176E" rx="2.5" ry="2.5" style="stroke:#000d19;stroke-width:.5"/><circle cx="22" cy="26.895" r="11" fill="#ADD1B2" style="stroke:#181818;stroke-width:1"/><path d="M24.969 32.535q-.578.297-1.219.438-.64.156-1.344.156-2.5 0-3.828-1.64-1.312-1.657-1.312-4.782t1.312-4.781q1.328-1.656 3.828-1.656.703 0 1.344.156.656.156 1.219.453v2.719q-.625-.578-1.219-.844-.594-.281-1.219-.281-1.343 0-2.031 1.078-.687 1.062-.687 3.156t.687 3.172q.688 1.062 2.031 1.062.625 0 1.219-.265.594-.281 1.219-.86z"/><text x="41" y="32.78" fill="#D9B8FF" font-family="Helvetica" font-size="17" textLength="223">gcp_sql_database_instance</text><path fill="none" d="M139.5 47.22v53.19" style="stroke:#1a83af;stroke-width:2"/><path fill="#1A83AF" d="m139.5 106.41 4-9-4 4-4-4z" style="stroke:#1a83af;stroke-width:2"/></svg>
